!!!COM: Bach, Johann Sebastian
!!!OTL: Helft mir Gott's Guete preisen
!!!ONM: No. 88
!!!OCL: Erk
!!!YOE: Riemenschneider, Albert
!!!OPR: 371 Harmonized Chorales and 69 Chorale Melodies with Figured Bass
!!!OPT: Bach Chorale Harmonizations
**kern	**kern	**kern	**kern
! bass	! tenor	! alto	! soprano
*M4/4	*M4/4	*M4/4	*M4/4
*a:	*a:	*a:	*a:
4AA	4c	4e	4a
=1	=1	=1	=1
4A	4c	4e	4a
4G#	4B	4e	4b
4A	4A	4e	4cc
4F#	4A	4d	4dd
=2	=2	=2	=2
[4.Gn	8Gn	4d	4.b
.	8F#	.	.
.	8G	8g	.
8G]	8A	8f#	8cc
4GG;	4B;	4g;	4dd;
4G#	4B	4e	4ee
=3	=3	=3	=3
8A	8A	4e	4cc
8Gn	8B	.	.
8Fn	4c	4a	4a
8E	.	.	.
4D	4f	4a	4b
4E	8e	4g#	4b
.	8d	.	.
=4	=4	=4	=4
2.AA;	2.c;	2.e;	2.a;
!! Repeat from the beginning.
4AA	4c	4e	4a
=1	=1	=1	=1
4A	4c	4e	4a
4G#	4B	4e	4b
4A	4A	4e	4cc
4F#	4A	4d	4dd
=2	=2	=2	=2
[4.Gn	8Gn	4d	4.b
.	8F#	.	.
.	8G	8g	.
8G]	8A	8f#	8cc
4GG;	4B;	4g;	4dd;
4G#	4B	4e	4ee
=3	=3	=3	=3
8A	8A	4e	4cc
8Gn	8B	.	.
8Fn	4c	4a	4a
8E	.	.	.
4D	4f	4a	4b
4E	8e	4g#	4b
.	8d	.	.
=4	=4	=4	=4
2.AA;	2.c;	2.e;	2.a;
!! Continuing.
4AA	4c	4a	4ee
=5	=5	=5	=5
4BB	4d	8a	4dd
.	.	8g#	.
4C	4e	4a	4cc
8D	8f	8a	4b
8E	8e	8g#	.
4F	8e	8a	4a
.	8d	8A	.
=6	=6	=6	=6
2.E;	2.G#;	2.e;	2.b;
4E	4e	4g#	4b
=7	=7	=7	=7
4A	4e	4a	4cc
4B	4d	4gn	4dd
8C	8c	4g	4ee
8B	8d	.	.
8A	4e	4a	4cc
8G	.	.	.
=8	=8	=8	=8
8F#	4A	4a	4.dd
8E	.	.	.
4D	4d	8g	.
.	.	8f#	8cc
4G;	4d;	4g;	4b;
4Fn	4d	4g	4b
=9	=9	=9	=9
4E	4G	4g	4cc
4D	8A	4fn	4dd
.	8B	.	.
4C	8c	4e	4ee
.	8d	.	.
8BB	4e	4a	4cc
8AA	.	.	.
=10	=10	=10	=10
8BB	4d	8a	4.dd
8C	.	8g	.
4D	4A	8f#	.
.	.	8e	8cc
4GG;	4B;	4d;	4b;
4G#	4B	4e	4ee
=11	=11	=11	=11
8A	8A	4e	8cc
8Gn	8B	.	8b
8F	4c	4a	4a
8E	.	.	.
4D	4f	4a	4b
4E	8e	4g#	4b
.	8d	.	.
=12	=12	=12	=12
2.AA;	2.c#;	2.e;	2.a;
==	==	==	==
*-	*-	*-	*-
!!!CDT: 1685/3//-1750/7/28
!!!OCY: Deutschland
!!!AGN: chorale
!!!AST: Baroque
!!!AIN: vox
!!!YOY: 1941
!!!PPP: New York; London
!!!PPR: G. Schirmer
!!!ENC: David Huron
!!!EED: David Huron
!!!YEN: United States of America
!!!YER: 1992
!!!YEC: Copyright 1992 David Huron
!!!YEM: Rights to all derivative electronic formats reserved.
!!!YER: March 20, 1996
!!!AMT: simple quadruple
!!!EEV: 1.1
